X:1
T:Elindultam szép hazámból
C:Hungarian folk song
Z:Public Domain
L:1/8
M:3/4
K:C
V:1 treble nm="Voice"
%%MIDI program 52
V:1
 A,A, AA AG | G2 A4 | BA GA ED | D2 C4 | AA G A3 | EB, C D3 | EC CD ED | A,2 A,4 |] %8
w: El- in- dul- tam szép ha-|zám- ból,|Hí- res kis Ma- gyar- or-|szág- ból,|Visz- sza- néz- tem|fél- u- tam- ból,|sze- mem- ből a könny ki-|csor- dult.|

